static/img/kroki/5882c36fb72cf8e759131fd13c5373b2.svg

<?xml version="1.0" encoding="us-ascii" standalone="no"?><svg xmlns="http://www.w3.org/2000/svg" xmlns:xlink="http://www.w3.org/1999/xlink" contentStyleType="text/css" height="352px" preserveAspectRatio="none" style="width:384px;height:352px;" version="1.1" viewBox="0 0 384 352" width="384px" zoomAndPan="magnify"><defs/><g><!--class digitalocean_droplet--><g id="elem_digitalocean_droplet"><rect codeLine="22" fill="#3D176E" height="39.7891" id="digitalocean_droplet" rx="2.5" ry="2.5" style="stroke:#000D19;stroke-width:0.5;" width="211" x="56.69" y="306.37"/><ellipse cx="71.69" cy="326.2645" fill="#ADD1B2" rx="11" ry="11" style="stroke:#181818;stroke-width:1.0;"/><path d="M74.6588,331.9052 Q74.0806,332.202 73.44,332.3427 Q72.7994,332.4989 72.0963,332.4989 Q69.5963,332.4989 68.2681,330.8583 Q66.9556,329.202 66.9556,326.077 Q66.9556,322.952 68.2681,321.2958 Q69.5963,319.6395 72.0963,319.6395 Q72.7994,319.6395 73.44,319.7958 Q74.0963,319.952 74.6588,320.2489 L74.6588,322.9677 Q74.0338,322.3895 73.44,322.1239 Q72.8463,321.8427 72.2213,321.8427 Q70.8775,321.8427 70.19,322.9208 Q69.5025,323.9833 69.5025,326.077 Q69.5025,328.1708 70.19,329.2489 Q70.8775,330.3114 72.2213,330.3114 Q72.8463,330.3114 73.44,330.0458 Q74.0338,329.7645 74.6588,329.1864 L74.6588,331.9052 Z " fill="#000000"/><text fill="#D9B8FF" font-family="Helvetica" font-size="17" lengthAdjust="spacing" textLength="169" x="90.69" y="332.1498">digitalocean_droplet</text></g><!--class digitalocean_image--><g id="elem_digitalocean_image"><rect codeLine="24" fill="#3D176E" height="39.7891" id="digitalocean_image" rx="2.5" ry="2.5" style="stroke:#000D19;stroke-width:0.5;" width="204" x="60.19" y="206.58"/><ellipse cx="75.19" cy="226.4745" fill="#ADD1B2" rx="11" ry="11" style="stroke:#181818;stroke-width:1.0;"/><path d="M78.1588,232.1152 Q77.5806,232.412 76.94,232.5527 Q76.2994,232.7089 75.5963,232.7089 Q73.0963,232.7089 71.7681,231.0683 Q70.4556,229.412 70.4556,226.287 Q70.4556,223.162 71.7681,221.5058 Q73.0963,219.8495 75.5963,219.8495 Q76.2994,219.8495 76.94,220.0058 Q77.5963,220.162 78.1588,220.4589 L78.1588,223.1777 Q77.5338,222.5995 76.94,222.3339 Q76.3463,222.0527 75.7213,222.0527 Q74.3775,222.0527 73.69,223.1308 Q73.0025,224.1933 73.0025,226.287 Q73.0025,228.3808 73.69,229.4589 Q74.3775,230.5214 75.7213,230.5214 Q76.3463,230.5214 76.94,230.2558 Q77.5338,229.9745 78.1588,229.3964 L78.1588,232.1152 Z " fill="#000000"/><text fill="#D9B8FF" font-family="Helvetica" font-size="17" lengthAdjust="spacing" textLength="162" x="94.19" y="232.3598">digitalocean_image</text></g><!--class digitalocean_region--><g id="elem_digitalocean_region"><rect codeLine="26" fill="#3D176E" height="39.7891" id="digitalocean_region" rx="2.5" ry="2.5" style="stroke:#000D19;stroke-width:0.5;" width="205" x="172.69" y="106.79"/><ellipse cx="187.69" cy="126.6845" fill="#ADD1B2" rx="11" ry="11" style="stroke:#181818;stroke-width:1.0;"/><path d="M190.6588,132.3252 Q190.0806,132.622 189.44,132.7627 Q188.7994,132.9189 188.0963,132.9189 Q185.5963,132.9189 184.2681,131.2783 Q182.9556,129.622 182.9556,126.497 Q182.9556,123.372 184.2681,121.7158 Q185.5963,120.0595 188.0963,120.0595 Q188.7994,120.0595 189.44,120.2158 Q190.0963,120.372 190.6588,120.6689 L190.6588,123.3877 Q190.0338,122.8095 189.44,122.5439 Q188.8463,122.2627 188.2213,122.2627 Q186.8775,122.2627 186.19,123.3408 Q185.5025,124.4033 185.5025,126.497 Q185.5025,128.5908 186.19,129.6689 Q186.8775,130.7314 188.2213,130.7314 Q188.8463,130.7314 189.44,130.4658 Q190.0338,130.1845 190.6588,129.6064 L190.6588,132.3252 Z " fill="#000000"/><text fill="#D9B8FF" font-family="Helvetica" font-size="17" lengthAdjust="spacing" textLength="163" x="206.69" y="132.5698">digitalocean_region</text></g><!--class digitalocean_team--><g id="elem_digitalocean_team"><rect codeLine="28" fill="#3D176E" height="39.7891" id="digitalocean_team" rx="2.5" ry="2.5" style="stroke:#000D19;stroke-width:0.5;" width="196" x="22.19" y="7"/><ellipse cx="37.19" cy="26.8945" fill="#ADD1B2" rx="11" ry="11" style="stroke:#181818;stroke-width:1.0;"/><path d="M40.1588,32.5352 Q39.5806,32.832 38.94,32.9727 Q38.2994,33.1289 37.5963,33.1289 Q35.0963,33.1289 33.7681,31.4883 Q32.4556,29.832 32.4556,26.707 Q32.4556,23.582 33.7681,21.9258 Q35.0963,20.2695 37.5963,20.2695 Q38.2994,20.2695 38.94,20.4258 Q39.5963,20.582 40.1588,20.8789 L40.1588,23.5977 Q39.5338,23.0195 38.94,22.7539 Q38.3463,22.4727 37.7213,22.4727 Q36.3775,22.4727 35.69,23.5508 Q35.0025,24.6133 35.0025,26.707 Q35.0025,28.8008 35.69,29.8789 Q36.3775,30.9414 37.7213,30.9414 Q38.3463,30.9414 38.94,30.6758 Q39.5338,30.3945 40.1588,29.8164 L40.1588,32.5352 Z " fill="#000000"/><text fill="#D9B8FF" font-family="Helvetica" font-size="17" lengthAdjust="spacing" textLength="154" x="56.19" y="32.7798">digitalocean_team</text></g><!--link digitalocean_image to digitalocean_droplet--><g id="link_digitalocean_image_digitalocean_droplet"><path codeLine="30" d="M162.19,246.8 C162.19,263.94 162.19,282.85 162.19,299.99 " fill="none" id="digitalocean_image-to-digitalocean_droplet" style="stroke:#1A83AF;stroke-width:2.0;"/><polygon fill="#1A83AF" points="162.19,305.99,166.19,296.99,162.19,300.99,158.19,296.99,162.19,305.99" style="stroke:#1A83AF;stroke-width:2.0;"/></g><!--link digitalocean_region to digitalocean_droplet--><g id="link_digitalocean_region_digitalocean_droplet"><path codeLine="31" d="M281.87,146.68 C289.3,171.28 298.17,214.74 281.19,246.37 C266.53,273.67 243.1878,290.4392 217.6378,303.1992 " fill="none" id="digitalocean_region-to-digitalocean_droplet" style="stroke:#1A83AF;stroke-width:2.0;"/><polygon fill="#1A83AF" points="212.27,305.88,222.1089,305.4374,216.7432,303.646,218.5346,298.2803,212.27,305.88" style="stroke:#1A83AF;stroke-width:2.0;"/></g><!--link digitalocean_region to digitalocean_image--><g id="link_digitalocean_region_digitalocean_image"><path codeLine="32" d="M252.86,147.01 C233.05,164.15 208.8064,185.133 189.0064,202.273 " fill="none" id="digitalocean_region-to-digitalocean_image" style="stroke:#1A83AF;stroke-width:2.0;"/><polygon fill="#1A83AF" points="184.47,206.2,193.8926,203.3338,188.2503,202.9275,188.6566,197.2853,184.47,206.2" style="stroke:#1A83AF;stroke-width:2.0;"/></g><!--link digitalocean_team to digitalocean_droplet--><g id="link_digitalocean_team_digitalocean_droplet"><path codeLine="33" d="M103.09,47.13 C70.52,86.22 6,177.1 43.19,246.37 C57.85,273.67 81.1922,290.4392 106.7422,303.1992 " fill="none" id="digitalocean_team-to-digitalocean_droplet" style="stroke:#1A83AF;stroke-width:2.0;"/><polygon fill="#1A83AF" points="112.11,305.88,105.8454,298.2803,107.6368,303.646,102.2711,305.4374,112.11,305.88" style="stroke:#1A83AF;stroke-width:2.0;"/></g><!--link digitalocean_team to digitalocean_image--><g id="link_digitalocean_team_digitalocean_image"><path codeLine="34" d="M124.29,47.2 C132.32,84.97 148.7827,162.3911 156.8227,200.2211 " fill="none" id="digitalocean_team-to-digitalocean_image" style="stroke:#1A83AF;stroke-width:2.0;"/><polygon fill="#1A83AF" points="158.07,206.09,160.1116,196.4551,157.0306,201.1992,152.2864,198.1182,158.07,206.09" style="stroke:#1A83AF;stroke-width:2.0;"/></g><!--link digitalocean_team to digitalocean_region--><g id="link_digitalocean_team_digitalocean_region"><path codeLine="35" d="M150.81,47.22 C177.99,64.36 212.4056,86.0784 239.5556,103.2084 " fill="none" id="digitalocean_team-to-digitalocean_region" style="stroke:#1A83AF;stroke-width:2.0;"/><polygon fill="#1A83AF" points="244.63,106.41,239.1528,98.2246,240.4013,103.742,234.884,104.9905,244.63,106.41" style="stroke:#1A83AF;stroke-width:2.0;"/></g><!--SRC=[hP1DIyD048Rl-HKBFHSIWxQz26cWwAM8zIOYq-nikZJP3RDJInN_kqshikQZfU1rtsVdVMPMMgB0ikATAB5S8hd0hRMfWA0K2P7TfhQm90PAWOf7pN1c3Py5vb2YkCFY3Lbdq2IULZfR6tHEN7dH5B9rJdPZv74y4nYtZz2mHwK5E9Smarvk63qPELcEbMgIpQ63M4QZ6snXbYJIDnA6eOmcJUHirSczVuc5VaSH-KURMyQMPglYG9sqh0bFihNeJzxh-01IQfEBQ-_jyUX41kdF-s85qcvhMa7X_1h7I6XvLs7QsWedOwb6dV1z7vpLbnDIvvgXi1c2UPLagm9PV0IVNR4k8SU-a33NrlIbZ7kfEkiOE7mUHCauJcOlmzjEdw2hwBz_7Lo2jlI5FMV-NDvo5Fy2]--></g></svg>

<svg xmlns="http://www.w3.org/2000/svg" width="384" height="352" viewBox="0 0 384 352"><rect width="211" height="39.789" x="56.69" y="306.37" fill="#3D176E" rx="2.5" ry="2.5" style="stroke:#000d19;stroke-width:.5"/><circle cx="71.69" cy="326.264" r="11" fill="#ADD1B2" style="stroke:#181818;stroke-width:1"/><path d="M74.659 331.905q-.578.297-1.219.438-.64.156-1.344.156-2.5 0-3.828-1.64-1.312-1.657-1.312-4.782t1.312-4.781q1.328-1.656 3.828-1.656.703 0 1.344.156.656.156 1.219.453v2.719q-.625-.579-1.219-.844-.594-.281-1.219-.281-1.344 0-2.031 1.078-.687 1.062-.687 3.156t.687 3.172q.688 1.062 2.031 1.062.625 0 1.219-.265.594-.281 1.219-.86z"/><text x="90.69" y="332.15" fill="#D9B8FF" font-family="Helvetica" font-size="17" textLength="169">digitalocean_droplet</text><rect width="204" height="39.789" x="60.19" y="206.58" fill="#3D176E" rx="2.5" ry="2.5" style="stroke:#000d19;stroke-width:.5"/><circle cx="75.19" cy="226.475" r="11" fill="#ADD1B2" style="stroke:#181818;stroke-width:1"/><path d="M78.159 232.115q-.578.297-1.219.438-.64.156-1.344.156-2.5 0-3.828-1.64-1.312-1.657-1.312-4.782t1.312-4.781q1.328-1.656 3.828-1.656.703 0 1.344.156.656.156 1.219.453v2.719q-.625-.578-1.219-.844-.594-.281-1.219-.281-1.344 0-2.031 1.078-.687 1.062-.687 3.156t.687 3.172q.688 1.062 2.031 1.062.625 0 1.219-.265.594-.281 1.219-.86z"/><text x="94.19" y="232.36" fill="#D9B8FF" font-family="Helvetica" font-size="17" textLength="162">digitalocean_image</text><rect width="205" height="39.789" x="172.69" y="106.79" fill="#3D176E" rx="2.5" ry="2.5" style="stroke:#000d19;stroke-width:.5"/><circle cx="187.69" cy="126.684" r="11" fill="#ADD1B2" style="stroke:#181818;stroke-width:1"/><path d="M190.659 132.325q-.578.297-1.219.438-.64.156-1.344.156-2.5 0-3.828-1.64-1.312-1.657-1.312-4.782t1.312-4.781q1.328-1.656 3.828-1.656.703 0 1.344.156.656.156 1.219.453v2.719q-.625-.579-1.219-.844-.594-.281-1.219-.281-1.344 0-2.031 1.078-.687 1.062-.687 3.156t.687 3.172q.688 1.062 2.031 1.062.625 0 1.219-.265.594-.281 1.219-.86z"/><text x="206.69" y="132.57" fill="#D9B8FF" font-family="Helvetica" font-size="17" textLength="163">digitalocean_region</text><rect width="196" height="39.789" x="22.19" y="7" fill="#3D176E" rx="2.5" ry="2.5" style="stroke:#000d19;stroke-width:.5"/><circle cx="37.19" cy="26.895" r="11" fill="#ADD1B2" style="stroke:#181818;stroke-width:1"/><path d="M40.159 32.535q-.578.297-1.219.438-.64.156-1.344.156-2.5 0-3.828-1.64-1.312-1.657-1.312-4.782t1.312-4.781q1.328-1.656 3.828-1.656.703 0 1.344.156.656.156 1.219.453v2.719q-.625-.578-1.219-.844-.594-.281-1.219-.281-1.343 0-2.031 1.078-.687 1.062-.687 3.156t.687 3.172q.688 1.062 2.031 1.062.625 0 1.219-.265.594-.281 1.219-.86z"/><text x="56.19" y="32.78" fill="#D9B8FF" font-family="Helvetica" font-size="17" textLength="154">digitalocean_team</text><path fill="none" d="M162.19 246.8v53.19" style="stroke:#1a83af;stroke-width:2"/><path fill="#1A83AF" d="m162.19 305.99 4-9-4 4-4-4z" style="stroke:#1a83af;stroke-width:2"/><path fill="none" d="M281.87 146.68c7.43 24.6 16.3 68.06-.68 99.69-14.66 27.3-38.002 44.07-63.552 56.83" style="stroke:#1a83af;stroke-width:2"/><path fill="#1A83AF" d="m212.27 305.88 9.839-.443-5.366-1.791 1.792-5.366z" style="stroke:#1a83af;stroke-width:2"/><path fill="none" d="M252.86 147.01a363246 363246 0 0 0-63.854 55.263" style="stroke:#1a83af;stroke-width:2"/><path fill="#1A83AF" d="m184.47 206.2 9.423-2.866-5.643-.406.407-5.643z" style="stroke:#1a83af;stroke-width:2"/><path fill="none" d="M103.09 47.13C70.52 86.22 6 177.1 43.19 246.37c14.66 27.3 38.002 44.07 63.552 56.83" style="stroke:#1a83af;stroke-width:2"/><path fill="#1A83AF" d="m112.11 305.88-6.265-7.6 1.792 5.366-5.366 1.791z" style="stroke:#1a83af;stroke-width:2"/><path fill="none" d="M124.29 47.2c8.03 37.77 24.493 115.191 32.533 153.021" style="stroke:#1a83af;stroke-width:2"/><path fill="#1A83AF" d="m158.07 206.09 2.042-9.635-3.081 4.744-4.745-3.08z" style="stroke:#1a83af;stroke-width:2"/><path fill="none" d="M150.81 47.22c27.18 17.14 61.596 38.858 88.746 55.988" style="stroke:#1a83af;stroke-width:2"/><path fill="#1A83AF" d="m244.63 106.41-5.477-8.185 1.248 5.517-5.517 1.248z" style="stroke:#1a83af;stroke-width:2"/></svg>
